packages/kaspersky-hexa-ui-icons/src/iconsSVGs/24/Moon.svg

<svg width="24" height="24" viewBox="0 0 24 24" fill="none" xmlns="http://www.w3.org/2000/svg">
<path fill-rule="evenodd" clip-rule="evenodd" d="M11.4869 2.38542C11.7142 2.67721 11.7619 3.07067 11.6109 3.40834C11.1735 4.38627 10.9311 5.46411 10.9311 6.59848C10.9311 11.0256 14.6525 14.6715 19.3146 14.6715C19.8318 14.6715 20.3373 14.6264 20.8273 14.5405C21.1916 14.4766 21.5615 14.6191 21.7888 14.9109C22.0162 15.2027 22.0639 15.5961 21.9128 15.9338C20.3109 19.5151 16.6374 22 12.3835 22C6.68083 22 2 17.5217 2 11.927C2 6.95472 5.70135 2.861 10.5253 2.01506C10.8897 1.95116 11.2595 2.09362 11.4869 2.38542ZM9.16344 4.4704C6.11789 5.69054 4 8.58504 4 11.927C4 16.3542 7.72143 20 12.3835 20C15.1812 20 17.6476 18.6826 19.1678 16.6705C13.5318 16.5944 8.93109 12.145 8.93109 6.59848C8.93109 5.86879 9.01122 5.15673 9.16344 4.4704Z" fill="black"/>
</svg>

<svg xmlns="http://www.w3.org/2000/svg" width="24" height="24" fill="none" viewBox="0 0 24 24"><path fill="#000" fill-rule="evenodd" d="M11.4869 2.3854c.2273.2918.275.6853.124 1.023a7.79 7.79 0 0 0-.6798 3.19c0 4.4272 3.7214 8.0731 8.3835 8.0731a8.76 8.76 0 0 0 1.5127-.131.9999.9999 0 0 1 1.0855 1.3933C20.3109 19.5151 16.6374 22 12.3835 22 6.6808 22 2 17.5217 2 11.927c0-4.9723 3.7014-9.066 8.5253-9.912a1 1 0 0 1 .9616.3704m-2.3235 2.085C6.118 5.6905 4 8.585 4 11.927 4 16.3542 7.7214 20 12.3835 20c2.7977 0 5.2641-1.3174 6.7843-3.3295-5.636-.0761-10.2367-4.5255-10.2367-10.072a9.82 9.82 0 0 1 .2323-2.1281"/></svg>
